X: 39628
T: Tempest, The
R: reel
M: 4/4
K: Ddorian
|:d2 cA GE E2|DEcE dEcE|d2 cA GE E2|EDCD EDD2|
d2 cA GE E2|DEcE dEcE|DEFA GEcE|EDCD ED D2:|
|:d2 ed cAGc|AccA GEE2|d2 ed cdef|edce d2ag|
eage dcAd|cAGE CDEG|DEFA GEcE|EDCD ED D2:|

